X: 21821
T: Kinnegad Slashers, The
R: jig
M: 6/8
K: Dmajor
((3A/B/c/|d)ed dAF|ABA ABc|ded dAF|Eee efe|
ded dAF|ABA A2g|fed dcB|ABc d2:|
|:A|dfa afd|cee ecA|dfa afd|Aaa a2A|
dfa afd|cee efg|fed dcB|ABc d2:|
|:((3A/B/c/|d)AF dAF|ABA ABc|dAF dAF|Eee efe|
dAF dAF|ABA A2g|fef dcB|ABc d2:|

